images/icon__reroll.svg

<svg width="30" height="26" viewBox="0 0 30 26" fill="none" xmlns="http://www.w3.org/2000/svg">
<path d="M29.0664 13C29.0664 16.4478 27.757 19.7544 25.4262 22.1924C23.0954 24.6304 19.9341 26 16.6378 26C13.3374 26 10.175 24.6422 7.79974 22.2444L9.87117 20.0778C10.7409 21.0404 11.7901 21.8063 12.9539 22.328C14.1178 22.8497 15.3716 23.1163 16.6378 23.1111C25.255 23.1111 29.5635 12.22 23.4735 5.85C17.3835 -0.52 6.97117 4.00111 6.97117 13H11.114L5.59022 18.7778H5.45212L0.0664062 13H4.20926C4.20926 9.55219 5.5187 6.24558 7.84951 3.80761C10.1803 1.36964 13.3416 0 16.6378 0C19.9341 0 23.0954 1.36964 25.4262 3.80761C27.757 6.24558 29.0664 9.55219 29.0664 13Z" fill="white"/>
</svg>

<svg width="30" height="26" viewBox="0 0 30 26" fill="none" xmlns="http://www.w3.org/2000/svg"><path d="M29.066 13c0 3.448-1.309 6.754-3.64 9.192C23.096 24.63 19.934 26 16.638 26c-3.3 0-6.463-1.358-8.838-3.756l2.071-2.166a9.27 9.27 0 0 0 3.083 2.25 8.91 8.91 0 0 0 3.684.783c8.617 0 12.925-10.891 6.835-17.261C17.384-.52 6.972 4.001 6.972 13h4.143L5.59 18.778h-.138L.066 13H4.21c0-3.448 1.31-6.754 3.64-9.192C10.18 1.37 13.343 0 16.639 0c3.296 0 6.457 1.37 8.788 3.808 2.331 2.438 3.64 5.744 3.64 9.192z" fill="#fff"/></svg>
